X: 79
U:~=!turn!
M:C
L:1/8
K:E phrygian
^f | g>g (a/g/).^f/.e/ (d/c/).B/.A/ {/^F}G>B | (A/B/).c/.d/ e>A {AB}c>Ae>^f | g>g (a/g/).^f/.e/ (d/c/).B/.A/ {/^F}G>B | c>AB>G A/A/A {^g}a2 |
{/^f}g<be<g d<gB<G | G<gA<a B<bA<B | {/^F}G<EE>G D>E{/F}G>B | {AB}c>AB>^G A/A/A e ||


